!!!OTL: Lebenslust.
!!!OTL-incipit: ALLES WAS WIR LIEBEN LEBE
!!!COM: Alte Weise
!!!ARE: Europa, Mitteleuropa, Deutschland
!!!SCT: F0555
!!!TXL: @@DE
!!!YEM: Copyright 1995, estate of Helmut Schaffrath.
**kern	**text
*ICvox	*
*M6/8	*
*k[f#c#g#]	*
*A:	*
!LO:TX:a:t=Munter.	!
{(8eL	1._Al-
8f#J)	.
8g#	-les,
=1	=1
4a	was
8a	wir
(8b\L	lie-
8aJ)	.
8b	-ben,
=2	=2
2.cc#	le-
=3	=3
4a	-be!
8r}	.
{(8cc#L	Al-
8bJ)	.
8a	-les
=4	=4
4g#	was
8g#	uns
(8bL	hoch-
8aJ)	.
8f#	-er-
=5	=5
4.e}	-freut!
{(8eL	Al-
8f#J)	.
8g#	-les,
=6	=6
4a	was
8a	wir
(8b\L	lie-
8aJ)	.
8b	-ben,
=7	=7
2.cc#	le-
=8	=8
4a	-be!
8r}	.
{(8cc#L	Al-
8bJ)	.
8a	-les
=9	=9
4g#	was
8g#	uns
(8bL	hoch-
8aJ)	.
8f#	-er-
=10	=10
4.e}	-freut!
{4b	Wein
8b	und
=11	=11
(8ddL	Früh-
8cc#J)	.
8b	-ling,
4a	Frucht
8a	und
=12	=12
(8aL	Blü-
8g#J)	.
8a}	-the,
{4b	fro-
8b	-he
=13	=13
(8ddL	Lau-
8cc#J)	.
8b	-ne,
4a	Her-
8a	-ʒens-
=14	=14
8bq	.
(8aL	-gü-
8g#J)	.
8a}	-te,
{4e	Freundſchaft
8a	.
=15	=15
4cc#	und
8ee	Ge-
(8b\L	-ſel-
8aJ)	.
8b	-lig-
=16	=16
4.cc#}	-keit,
{4e	Freundſchaft
8a	.
=17	=17
4cc#	und
8ee	Ge-
(8bL	-ſel-
8cc#J)	.
8b	-lig-
=18	=18
4.a}	-keit!
==	==
!!!AGN: Studenten - Lied, Geselligkeit
!!!ONB: ESAC (Essen Associative Code) Database: FINK
!!!AMT: compound duple
!!!AIN: vox
!!!EED: Helmut Schaffrath
!!!EEV: 1.0
!!!GTL: Studentenlieder
!!Text: Ritter
!!!source: Musikalischer Hausschatz der Deutschen. Eine Sammlung von über 1000 Liedern und Gesängen mit Singstimmen und Klavierbegleitung. Leipzig, Litterarisches Verlags-Haus.
!!!page: 359
!!!ENC: Anna Maria Matuszewska
!!!EEV: 2025/03/18
*-	*-
